X: 6
T: The Belles Of Tipperary
R: reel
M: 4/4
L: 1/8
K: Dmaj
|:D2 FA D2 FA | defe dBBA | B2 AF ABde | f2 ed fe e2 |dA A2 DEFA | defe dBBA | B2 AF ABdB | AFEG FD D2 :|||:faaf afdf | gfed (3Bcd ef |g3f gbag | faaf egfe | dB B2 AF F2 | DF F2 ABdf | afef dBAF | A2 ag fd d2 :||


Tune 769	Setting 13890

